png/key.svg

<?xml version="1.0" encoding="utf-8"?><!-- Uploaded to: SVG Repo, www.svgrepo.com, Generator: SVG Repo Mixer Tools -->
<svg width="800px" height="800px" viewBox="0 0 24 24" fill="none" xmlns="http://www.w3.org/2000/svg">
<path fill-rule="evenodd" clip-rule="evenodd" d="M3 7C3 5.59987 3 4.8998 3.27248 4.36502C3.51217 3.89462 3.89462 3.51217 4.36502 3.27248C4.8998 3 5.59987 3 7 3H17C18.4001 3 19.1002 3 19.635 3.27248C20.1054 3.51217 20.4878 3.89462 20.7275 4.36502C21 4.8998 21 5.59987 21 7V17C21 18.4001 21 19.1002 20.7275 19.635C20.4878 20.1054 20.1054 20.4878 19.635 20.7275C19.1002 21 18.4001 21 17 21H7H6.99997C5.59986 21 4.8998 21 4.36502 20.7275C3.89462 20.4878 3.51217 20.1054 3.27248 19.635C3 19.1002 3 18.4001 3 17V7ZM10.8293 11C10.4175 9.83481 9.30622 9 8 9C6.34315 9 5 10.3431 5 12C5 13.6569 6.34315 15 8 15C9.30622 15 10.4175 14.1652 10.8293 13H13V14C13 14.5523 13.4477 15 14 15C14.5523 15 15 14.5523 15 14V13H16V14C16 14.5523 16.4477 15 17 15C17.5523 15 18 14.5523 18 14V12.15C18 11.5149 17.4851 11 16.85 11H14H10.8293ZM9 12C9 11.4477 8.55228 11 8 11C7.44772 11 7 11.4477 7 12C7 12.5523 7.44772 13 8 13C8.55228 13 9 12.5523 9 12Z" fill="#222222"/>
</svg>

<svg xmlns="http://www.w3.org/2000/svg" width="800" height="800" fill="none" viewBox="0 0 24 24"><path fill="#ffd000" fill-rule="evenodd" d="M3 7c0-1.4 0-2.1.272-2.635a2.5 2.5 0 0 1 1.093-1.093C4.9 3 5.6 3 7 3h10c1.4 0 2.1 0 2.635.272a2.5 2.5 0 0 1 1.092 1.093C21 4.9 21 5.6 21 7v10c0 1.4 0 2.1-.273 2.635a2.5 2.5 0 0 1-1.092 1.092C19.1 21 18.4 21 17 21H7c-1.4 0-2.1 0-2.635-.273a2.5 2.5 0 0 1-1.093-1.092C3 19.1 3 18.4 3 17zm7.83 4a3.001 3.001 0 1 0 0 2H13v1a1 1 0 1 0 2 0v-1h1v1a1 1 0 1 0 2 0v-1.85A1.15 1.15 0 0 0 16.85 11zM9 12a1 1 0 1 0-2 0 1 1 0 0 0 2 0" clip-rule="evenodd"/></svg>
